X: 18702
T: I'm The Boy For Bewitching Them
R: slip jig
M: 9/8
K: Dmajor
D|DED FAB AFD|E>FD E>FA B2 d|D>ED dcB AFD|
EFA F2>EDC B,2||ddA dd>e dcB|ABA Fd>e f {f}e2|
cd>e dfe dcB|ABc d>BA F>EC|(D3 D6)||

